X:156
T:La Fete da Bruge. VWMLa.156
%%VWML:Anon2-3049-p96-0
F:http://www.vwml.org/record/Anon2/3049/p96
S:Anon. MS, late 18thC, Vaughan Williams Mem. Library
O:England;Yorkshire
Z:vmp/efdss.Simon Wilson. Reviewed PJH 2008.
M:2/4
L:1/8
Q:1/4=140
K:D
dfdf|{f}e2e2|egec|d/c/d/e/ dA|\
dfdf|{f}e2e2|egec|d2d2:|
|:(A/G/F/G/) .A.A|Bd!turn!d2|ce!turn!e2|d/e/f/g/ aa|\
(A/G/F/G/) .A.A|BBB2|fedc|d2d2:|
T:Moss Rose. VWMLa.157
R:March
S:Anon. MS, late 18thC, Vaughan Williams Mem. Library
O:England;Yorkshire
Z:vmp/efdss.Simon Wilson. Reviewed PJH 2008.
M:2/4
L:1/8
Q:1/4=100
K:D
.f(f/g/) fe|.d(d/e/) dA|B>d c/d/e/c/|d/c/d/e/ d/A/F/A/|\
.f(f/g/) fe|.d(d/e/) dA|B>d c/d/e/c/|d2 D2:|
|:"P"f>g .a.f|.b.g .e.a|.f.d .B.g|ec A>g|\
"^F"f>g af|bg e>g|{g}f.e/.d/ {g}e.d/.c/|d2 D2:|
